src/icons/yaml.svg

<svg viewBox="0 0 24 24" xmlns="http://www.w3.org/2000/svg">
  <path
    d="M13 9h5.5L13 3.5V9M6 2h8l6 6v12c0 1.1-.9 2-2 2H6c-1.1 0-2-.9-2-2V4c0-1.1.9-2 2-2m12 16v-2H9v2h9m-4-4v-2H6v2z"
    fill="#FF5252"
  />
</svg>

<svg viewBox="0 0 24 24" xmlns="http://www.w3.org/2000/svg">
  <path
    d="M13 9H18.5L13 3.5V9ZM6 2H14L20 8V20C20 21.1 19.1 22 18 22H6C4.9 22 4 21.1 4 20V4C4 2.9 4.9 2 6 2ZM18 18V16H9V18H18ZM14 14V12H6V14H14Z"
    fill="#FF5252"
  />
</svg>
